svg/emoji_u1f96b.svg

<svg width="128" height="128" viewBox="0 0 128 128" fill="none" xmlns="http://www.w3.org/2000/svg">
<path d="M57.6399 20.9199L28.1899 26.2899C28.1899 26.2899 28.5399 55.4099 28.2299 69.0599C27.9199 82.7099 27.8099 102.06 28.0299 104.51C28.2199 106.64 34.7799 113.41 34.7799 113.41L56.8699 121.39L78.3399 120.62L97.0499 111.88C97.0499 111.88 99.8399 108.13 100.37 106.86C100.78 105.89 100.4 78.7299 100.4 65.7999C100.4 54.9099 100.95 25.3399 100.95 25.3399L57.6399 20.9199Z" fill="#E6410C" style="fill:#E6410C;fill:color(display-p3 0.9000 0.2560 0.0487);fill-opacity:1;"/>
<path d="M28.2999 109.44C28.6399 110.92 40.5099 124.29 64.4799 124.29C88.4499 124.29 99.9399 112.56 100.16 111.35C100.38 110.14 100.42 106.69 100.42 106.69C100.42 106.69 88.7799 119.34 64.8099 119.45C40.4999 119.56 28.0099 104.37 28.0099 104.37C28.0099 104.37 27.9599 107.96 28.2999 109.44Z" fill="#B0B0B0" style="fill:#B0B0B0;fill:color(display-p3 0.6902 0.6902 0.6902);fill-opacity:1;"/>
<path d="M38.4201 10.3501L28.1501 18.0501C28.1501 18.0501 27.8501 21.3401 27.8601 22.8901C27.8801 25.1901 28.1901 26.3001 28.1901 26.3001C28.1901 26.3001 35.0901 37.5001 64.8701 38.3001C91.7801 39.0201 100.89 28.8401 100.89 28.8401C100.89 28.8401 102.04 26.4301 102.29 24.6901C102.71 21.8201 102.21 19.3801 102.21 19.3801L38.4201 10.3501Z" fill="#E0E0E0" style="fill:#E0E0E0;fill:color(display-p3 0.8784 0.8784 0.8784);fill-opacity:1;"/>
<path d="M65.37 3.85976C47.56 3.20976 28.19 9.24976 28.08 18.6998C27.97 28.4898 52.61 34.2298 64.81 34.3198C79.96 34.4298 101.98 29.0398 102.31 20.2398C102.65 11.4498 84.85 4.56976 65.37 3.85976Z" fill="#B0B0B0" style="fill:#B0B0B0;fill:color(display-p3 0.6902 0.6902 0.6902);fill-opacity:1;"/>
<path d="M65.37 16.7199C65.37 16.7199 36.56 22.2199 34.91 20.7899C33.26 19.3599 31.94 18.1499 35.68 14.8499C39.42 11.5499 49.74 7.10994 66.25 7.80994C83.57 8.54994 96.47 14.4199 97.3 19.0799C97.45 19.8999 97.22 21.3999 96.28 21.9199C96.07 22.0399 90.81 24.5799 90.81 24.5799C90.81 24.5799 64.6 16.6099 65.37 16.7199Z" fill="#858585" style="fill:#858585;fill:color(display-p3 0.5216 0.5216 0.5216);fill-opacity:1;"/>
<path d="M83.18 13.2299C72.01 10.0699 53.74 9.2499 44.06 13.5399C34.38 17.8299 34.98 20.8399 34.98 20.8399C34.98 20.8399 43.3 28.6799 65.04 28.9399C88.25 29.2199 96.27 21.8999 96.27 21.8999C96.27 21.8999 95.61 16.7499 83.18 13.2299Z" fill="#E0E0E0" style="fill:#E0E0E0;fill:color(display-p3 0.8784 0.8784 0.8784);fill-opacity:1;"/>
<path d="M40.6198 46.75C39.9098 47.1 39.8498 48.4 39.7398 50.05C39.6298 51.7 39.2998 99.21 39.5198 99.65C39.7398 100.09 47.3298 108.23 64.5998 107.9C81.2098 107.58 89.3398 101.69 89.3398 101.69C89.3398 101.69 89.5598 71.7 89.6698 64.66C89.7798 57.62 90.5798 49.37 89.6698 48.54C88.1598 47.16 81.0898 49.05 64.7098 48.83C48.3298 48.61 41.9398 46.09 40.6198 46.75Z" fill="#719921" style="fill:#719921;fill:color(display-p3 0.4431 0.6000 0.1294);fill-opacity:1;"/>
<path d="M40.6198 46.75C39.9098 47.1 39.8498 48.4 39.7398 50.05C39.6298 51.7 39.2998 99.21 39.5198 99.65C39.7398 100.09 47.3298 108.23 64.5998 107.9C81.2098 107.58 89.3398 101.69 89.3398 101.69C89.3398 101.69 89.5598 71.7 89.6698 64.66C89.7798 57.62 90.5798 49.37 89.6698 48.54C88.1598 47.16 81.0898 49.05 64.7098 48.83C48.3298 48.61 41.9398 46.09 40.6198 46.75Z" fill="#FEB502" style="fill:#FEB502;fill:color(display-p3 0.9961 0.7098 0.0078);fill-opacity:1;"/>
<path d="M44.1402 51.9202C43.3602 53.0802 43.6702 74.4802 43.6702 78.7702C43.6702 83.0602 43.6302 96.6502 43.6302 96.6502C43.6302 96.6502 50.3202 102.97 63.4902 102.95C76.8502 102.93 85.1202 98.5502 85.1202 98.5502C85.1202 98.5502 85.4902 80.4002 85.6002 72.2702C85.7102 64.1402 85.9202 54.4902 85.9402 53.0002C85.9602 51.7502 73.4402 53.7702 63.5502 53.3302C51.0202 52.7902 44.8002 50.9302 44.1402 51.9202Z" fill="#E5DDA0" style="fill:#E5DDA0;fill:color(display-p3 0.8980 0.8667 0.6275);fill-opacity:1;"/>
<path d="M50.1698 59.93C49.4998 60.26 49.0998 60.61 48.9698 61.77C48.7998 63.27 49.4598 64.2099 50.2098 64.6299C50.9598 65.0499 57.0098 65.36 64.5998 65.4C72.5498 65.45 79.3098 65.21 79.3098 65.21C79.3098 65.21 80.1398 64.29 80.1398 62.63C80.1398 61.29 79.7598 60.69 79.3098 60.38C78.8498 60.07 69.9898 60.48 64.2398 60.44C57.7498 60.39 50.8298 59.6 50.1698 59.93Z" fill="#749B22" style="fill:#749B22;fill:color(display-p3 0.4549 0.6078 0.1333);fill-opacity:1;"/>
<path d="M50.2598 82.3498C50.2598 90.3598 55.4298 96.6098 64.9298 96.5198C74.4298 96.4298 78.4598 87.7799 78.1898 82.7598C77.8598 76.5898 74.3498 69.3398 64.3498 69.3398C54.3498 69.3398 50.2598 76.5198 50.2598 82.3498Z" fill="#FF5119" style="fill:#FF5119;fill:color(display-p3 1.0000 0.3176 0.0980);fill-opacity:1;"/>
</svg>

<?xml version="1.0" encoding="utf-8"?>
<!-- Generator: Adobe Illustrator 25.2.3, SVG Export Plug-In . SVG Version: 6.00 Build 0)  -->
<svg version="1.1" id="Layer_2" xmlns="http://www.w3.org/2000/svg" xmlns:xlink="http://www.w3.org/1999/xlink" x="0px" y="0px"
	 viewBox="0 0 128 128" style="enable-background:new 0 0 128 128;" xml:space="preserve">
<path style="fill:#FEB502;" d="M57.64,20.92l-29.45,5.37c0,0,0.35,29.12,0.04,42.77c-0.31,13.65-0.42,33-0.2,35.45
	c0.19,2.13,6.75,8.9,6.75,8.9l22.09,7.98l21.47-0.77l18.71-8.74c0,0,2.79-3.75,3.32-5.02c0.41-0.97,0.03-28.13,0.03-41.06
	c0-10.89,0.55-40.46,0.55-40.46L57.64,20.92z"/>
<path style="fill:#B0B0B0;" d="M28.3,109.44c0.34,1.48,12.21,14.85,36.18,14.85s35.46-11.73,35.68-12.94
	c0.22-1.21,0.26-4.66,0.26-4.66s-11.64,12.65-35.61,12.76c-24.31,0.11-36.8-15.08-36.8-15.08S27.96,107.96,28.3,109.44z"/>
<path style="fill:#E0E0E0;" d="M38.42,10.35l-10.27,7.7c0,0-0.3,3.29-0.29,4.84c0.02,2.3,0.33,3.41,0.33,3.41s6.9,11.2,36.68,12
	c26.91,0.72,36.02-9.46,36.02-9.46s1.15-2.41,1.4-4.15c0.42-2.87-0.08-5.31-0.08-5.31L38.42,10.35z"/>
<path style="fill:#B0B0B0;" d="M65.37,3.86C47.56,3.21,28.19,9.25,28.08,18.7c-0.11,9.79,24.53,15.53,36.73,15.62
	c15.15,0.11,37.17-5.28,37.5-14.08C102.65,11.45,84.85,4.57,65.37,3.86z"/>
<path style="fill:#858585;" d="M65.37,16.72c0,0-28.81,5.5-30.46,4.07c-1.65-1.43-2.97-2.64,0.77-5.94s14.06-7.74,30.57-7.04
	c17.32,0.74,30.22,6.61,31.05,11.27c0.15,0.82-0.08,2.32-1.02,2.84c-0.21,0.12-5.47,2.66-5.47,2.66S64.6,16.61,65.37,16.72z"/>
<path style="fill:#E0E0E0;" d="M83.18,13.23c-11.17-3.16-29.44-3.98-39.12,0.31s-9.08,7.3-9.08,7.3s8.32,7.84,30.06,8.1
	c23.21,0.28,31.23-7.04,31.23-7.04S95.61,16.75,83.18,13.23z"/>
<path style="fill:#719921;" d="M40.62,46.75c-0.71,0.35-0.77,1.65-0.88,3.3c-0.11,1.65-0.44,49.16-0.22,49.6s7.81,8.58,25.08,8.25
	c16.61-0.32,24.74-6.21,24.74-6.21s0.22-29.99,0.33-37.03c0.11-7.04,0.91-15.29,0-16.12c-1.51-1.38-8.58,0.51-24.96,0.29
	S41.94,46.09,40.62,46.75z"/>
<path style="fill:#E5DDA0;" d="M44.14,51.92c-0.78,1.16-0.47,22.56-0.47,26.85c0,4.29-0.04,17.88-0.04,17.88s6.69,6.32,19.86,6.3
	c13.36-0.02,21.63-4.4,21.63-4.4s0.37-18.15,0.48-26.28S85.92,54.49,85.94,53c0.02-1.25-12.5,0.77-22.39,0.33
	C51.02,52.79,44.8,50.93,44.14,51.92z"/>
<path style="fill:#749B22;" d="M50.17,59.93c-0.67,0.33-1.07,0.68-1.2,1.84c-0.17,1.5,0.49,2.44,1.24,2.86
	c0.75,0.42,6.8,0.73,14.39,0.77c7.95,0.05,14.71-0.19,14.71-0.19s0.83-0.92,0.83-2.58c0-1.34-0.38-1.94-0.83-2.25
	c-0.46-0.31-9.32,0.1-15.07,0.06C57.75,60.39,50.83,59.6,50.17,59.93z"/>
<path style="fill:#FF5119;" d="M50.26,82.35c0,8.01,5.17,14.26,14.67,14.17s13.53-8.74,13.26-13.76
	c-0.33-6.17-3.84-13.42-13.84-13.42S50.26,76.52,50.26,82.35z"/>
</svg>
